packages/core/src/svgs/tokens/mono/GGG.svg

<svg width="24" height="24" viewBox="0 0 24 24" fill="none" xmlns="http://www.w3.org/2000/svg">
<path d="M9.91112 11.8385C9.5151 11.345 9.00859 10.9516 8.43242 10.6901C7.85626 10.4285 7.22663 10.3062 6.59445 10.333C4.15001 10.333 2 12.2218 2 14.7218C2 15.5997 2.3 16.6886 2.97222 17.5775C3.35424 18.0957 3.8545 18.5153 4.43137 18.8014C5.00825 19.0874 5.64508 19.2315 6.2889 19.2218C6.73758 19.2322 7.18358 19.1501 7.59929 18.981C8.01499 18.8119 8.39152 18.5591 8.70556 18.2386H8.75556C8.95001 18.2386 9.00001 18.4051 9.00001 18.4775V18.6663C9.00001 19.0662 9.33335 19.2218 9.65562 19.2218C10.1277 19.2218 10.3333 18.8329 10.3333 18.6107V15.9274C10.3333 15.5108 9.94444 15.3329 9.74999 15.3329H9.01668C8.37223 15.3329 7.96113 15.9607 8.38334 16.4218C8.32224 16.5719 8.22223 16.7385 8.08334 16.8885C7.81112 17.1718 7.36112 17.5552 6.34445 17.5552C4.76667 17.5552 3.66668 16.1496 3.66668 14.7218C3.66668 13.183 5.05557 11.9996 6.59445 11.9996C7.35556 11.9996 8.04445 12.2552 8.5389 12.8885C8.70557 13.1052 8.96668 13.1108 9.22223 13.1108C9.88895 13.1108 10.4111 12.4774 9.91112 11.8385ZM14.089 11.8385C14.9667 10.7274 16.189 10.3385 17.4055 10.333C19.85 10.333 22 12.2218 22 14.7218C22 15.5997 21.7 16.6886 21.0278 17.5775C20.6458 18.0957 20.1455 18.5153 19.5687 18.8014C18.9918 19.0874 18.3549 19.2315 17.7111 19.2218C17.2624 19.2322 16.8165 19.1501 16.4008 18.981C15.9851 18.8119 15.6085 18.5591 15.2945 18.2386H15.2445C15.05 18.2386 15 18.4051 15 18.4775V18.6663C15 19.0662 14.6667 19.2218 14.3445 19.2218C13.8722 19.2218 13.6666 18.8329 13.6666 18.6107V15.9274C13.6666 15.5108 14.0555 15.3329 14.25 15.3329H14.9834C15.6278 15.3329 16.0388 15.9607 15.6166 16.4218C15.6778 16.5719 15.7778 16.7385 15.9167 16.8885C16.189 17.1718 16.6389 17.5552 17.6556 17.5552C19.2333 17.5552 20.3334 16.1496 20.3334 14.7218C20.3334 13.183 18.9445 11.9996 17.4055 11.9996C16.6445 11.9996 15.9556 12.2552 15.4611 12.8885C15.2945 13.1052 15.0333 13.1108 14.7778 13.1108C14.1111 13.1108 13.5888 12.4774 14.089 11.8385Z" fill="white"/>
<path d="M6.72239 13.1106C6.64872 13.1106 6.57807 13.1398 6.52597 13.1919C6.47387 13.244 6.44462 13.3146 6.44462 13.3883V14.2217H5.61128C5.53761 14.2217 5.46695 14.2509 5.41486 14.3031C5.36277 14.3552 5.3335 14.4258 5.3335 14.4994C5.3335 14.5731 5.36277 14.6437 5.41486 14.6958C5.46695 14.7479 5.53761 14.7772 5.61128 14.7772H6.44462V15.6105C6.44462 15.6843 6.47387 15.7549 6.52597 15.807C6.57807 15.859 6.64872 15.8883 6.72239 15.8883C6.79606 15.8883 6.86672 15.859 6.9188 15.807C6.9709 15.7549 7.00017 15.6843 7.00017 15.6105V14.7772H7.8335C7.90718 14.7772 7.97783 14.7479 8.02992 14.6958C8.08201 14.6437 8.11128 14.5731 8.11128 14.4994C8.11128 14.4258 8.08201 14.3552 8.02992 14.3031C7.97783 14.2509 7.90718 14.2217 7.8335 14.2217H7.00017V13.3883C7.00017 13.3146 6.9709 13.244 6.9188 13.1919C6.86672 13.1398 6.79606 13.1106 6.72239 13.1106Z" fill="white"/>
<path d="M17.5555 14.2217C17.8623 14.2217 18.1111 13.9729 18.1111 13.6661C18.1111 13.3592 17.8623 13.1106 17.5555 13.1106C17.2488 13.1106 17 13.3592 17 13.6661C17 13.9729 17.2488 14.2217 17.5555 14.2217Z" fill="white"/>
<path d="M17.5555 16.4439C17.8623 16.4439 18.1111 16.1952 18.1111 15.8884C18.1111 15.5815 17.8623 15.3328 17.5555 15.3328C17.2488 15.3328 17 15.5815 17 15.8884C17 16.1952 17.2488 16.4439 17.5555 16.4439Z" fill="white"/>
<path d="M18.6669 15.3327C18.9738 15.3327 19.2225 15.0841 19.2225 14.7773C19.2225 14.4704 18.9738 14.2217 18.6669 14.2217C18.3601 14.2217 18.1113 14.4704 18.1113 14.7773C18.1113 15.0841 18.3601 15.3327 18.6669 15.3327Z" fill="white"/>
<path d="M16.4452 15.3327C16.7521 15.3327 17.0008 15.0841 17.0008 14.7773C17.0008 14.4704 16.7521 14.2217 16.4452 14.2217C16.1384 14.2217 15.8896 14.4704 15.8896 14.7773C15.8896 15.0841 16.1384 15.3327 16.4452 15.3327Z" fill="white"/>
<path d="M17.2786 4.77734C17.7397 4.77734 18.1118 5.14956 18.1118 5.61068V7.27734C18.1118 7.94039 17.8484 8.57627 17.3797 9.04512C16.9108 9.51395 16.2749 9.77734 15.6118 9.77734H13.3897C12.9285 9.77734 12.5563 10.1496 12.5563 10.6107V11.7218C12.5563 11.9428 12.4685 12.1547 12.3122 12.311C12.156 12.4674 11.9439 12.5551 11.7229 12.5551C11.5019 12.5551 11.2899 12.4674 11.1337 12.311C10.9774 12.1547 10.8896 11.9428 10.8896 11.7218V10.6107C10.8896 9.94764 11.1531 9.31175 11.6219 8.84291C12.0907 8.37408 12.7266 8.11068 13.3897 8.11068H15.6118C16.073 8.11068 16.4452 7.73845 16.4452 7.27734V5.61068C16.4452 5.14956 16.8174 4.77734 17.2786 4.77734Z" fill="white"/>
</svg>

<svg xmlns="http://www.w3.org/2000/svg" width="24" height="24" fill="none" viewBox="0 0 24 24">
    <path fill="#fff" d="M9.911 11.839a4.03 4.03 0 0 0-3.317-1.506C4.15 10.333 2 12.222 2 14.722c0 .878.3 1.967.972 2.856a4.05 4.05 0 0 0 3.317 1.644 3.28 3.28 0 0 0 2.417-.983h.05c.194 0 .244.166.244.238v.19c0 .4.333.555.656.555a.656.656 0 0 0 .677-.611v-2.684c0-.416-.389-.594-.583-.594h-.733c-.645 0-1.056.628-.634 1.089-.06.15-.16.316-.3.466-.272.284-.722.667-1.739.667-1.577 0-2.677-1.405-2.677-2.833C3.667 13.183 5.056 12 6.594 12c.762 0 1.45.255 1.945.889.167.216.428.222.683.222.667 0 1.19-.634.69-1.273m4.178 0c.878-1.112 2.1-1.5 3.316-1.506 2.445 0 4.595 1.889 4.595 4.389a4.9 4.9 0 0 1-.972 2.856 4.05 4.05 0 0 1-3.317 1.644 3.28 3.28 0 0 1-2.416-.983h-.05c-.195 0-.245.166-.245.238v.19c0 .4-.333.555-.655.555a.656.656 0 0 1-.678-.611v-2.684c0-.416.389-.594.583-.594h.733c.645 0 1.056.628.634 1.089.06.15.16.316.3.466.272.284.722.667 1.739.667 1.577 0 2.677-1.405 2.677-2.833 0-1.539-1.388-2.722-2.927-2.722-.761 0-1.45.255-1.945.889-.167.216-.428.222-.683.222-.667 0-1.19-.634-.689-1.273"/>
    <path fill="#fff" d="M6.722 13.11a.28.28 0 0 0-.277.278v.834H5.61a.277.277 0 1 0 0 .555h.834v.834a.278.278 0 1 0 .555 0v-.834h.833a.278.278 0 0 0 0-.555H7v-.834a.28.28 0 0 0-.278-.277m10.834 1.111a.556.556 0 1 0 0-1.112.556.556 0 0 0 0 1.112m0 2.222a.556.556 0 1 0 0-1.111.556.556 0 0 0 0 1.11m1.111-1.11a.555.555 0 1 0 0-1.111.555.555 0 0 0 0 1.11m-2.222.001a.555.555 0 1 0 0-1.111.555.555 0 0 0 0 1.11m.834-10.555c.46 0 .833.373.833.834v1.666a2.5 2.5 0 0 1-2.5 2.5H13.39a.83.83 0 0 0-.834.834v1.11a.833.833 0 0 1-1.666 0v-1.11a2.5 2.5 0 0 1 2.5-2.5h2.222a.83.83 0 0 0 .833-.834V5.611c0-.461.372-.834.834-.834"/>
</svg>
